public/images/users/laurels/1.svg

<?xml version="1.0" encoding="UTF-8"?>
<svg width="68px" height="43px" viewBox="0 0 68 43" version="1.1" xmlns="http://www.w3.org/2000/svg" xmlns:xlink="http://www.w3.org/1999/xlink">
    <!-- Generator: Sketch 52.6 (67491) - http://www.bohemiancoding.com/sketch -->
    <title>Artboard</title>
    <desc>Created with Sketch.</desc>
    <g id="Artboard" stroke="none" stroke-width="1" fill="none" fill-rule="evenodd">
        <g id="Page-1-Copy-2">
            <path d="M49.8662,35.4235 C49.8662,35.4235 48.4702,33.7545 46.9612,33.8015 C46.9612,33.8015 47.3562,33.7175 47.7062,33.3565 C47.7062,33.3565 47.3942,32.7265 44.7412,32.3615 C44.7412,32.3615 45.2902,32.0865 45.3582,31.8815 C45.3582,31.8815 43.7342,31.1955 42.4992,31.6535 C42.4992,31.6535 42.4992,31.3565 42.8192,31.1275 C42.8192,31.1275 39.8232,31.3455 38.4282,33.0455 C38.4282,33.0455 41.3572,35.3825 45.3842,35.9755 C45.3842,35.9755 42.4332,36.7545 38.0632,34.0345 C38.0632,34.0345 37.6082,37.8095 40.9482,38.9965 C40.9482,38.9965 40.6732,38.5165 40.6962,37.9445 C40.6962,37.9445 42.3662,39.4535 43.8072,39.1325 C43.8072,39.1325 43.4182,38.7435 43.3042,38.4465 C43.3042,38.4465 45.3162,38.9025 47.6492,38.3755 C47.6492,38.3755 47.1912,38.2385 46.8942,37.7355 C46.8942,37.7355 48.7692,37.5745 49.8662,35.4235" id="Fill-1" fill="#DC9FFF"></path>
            <path d="M49.8662,35.4235 C49.8662,35.4235 48.4702,33.7545 46.9612,33.8015 C46.9612,33.8015 47.3562,33.7175 47.7062,33.3565 C47.7062,33.3565 47.3942,32.7265 44.7412,32.3615 C44.7412,32.3615 45.2902,32.0865 45.3582,31.8815 C45.3582,31.8815 43.7342,31.1955 42.4992,31.6535 C42.4992,31.6535 42.4992,31.3565 42.8192,31.1275 C42.8192,31.1275 39.8232,31.3455 38.4282,33.0455 C38.4282,33.0455 41.3572,35.3825 45.3842,35.9755 C45.3842,35.9755 42.4332,36.7545 38.0632,34.0345 C38.0632,34.0345 37.6082,37.8095 40.9482,38.9965 C40.9482,38.9965 40.6732,38.5165 40.6962,37.9445 C40.6962,37.9445 42.3662,39.4535 43.8072,39.1325 C43.8072,39.1325 43.4182,38.7435 43.3042,38.4465 C43.3042,38.4465 45.3162,38.9025 47.6492,38.3755 C47.6492,38.3755 47.1912,38.2385 46.8942,37.7355 C46.8942,37.7355 48.7692,37.5745 49.8662,35.4235 Z" id="Stroke-3" stroke="#9D33DB" stroke-width="0.5" stroke-linejoin="round"></path>
            <path d="M45.6338,40.1388 C45.6338,40.1388 44.9038,37.9068 43.3708,37.3478 C43.3708,37.3478 43.8008,37.4238 44.2968,37.2008 C44.2968,37.2008 44.2368,36.4438 41.7228,35.0158 C41.7228,35.0158 42.3828,34.9598 42.5338,34.7808 C42.5338,34.7808 41.1798,33.4438 39.7578,33.4078 C39.7578,33.4078 39.8768,33.1098 40.2898,33.0088 C40.2898,33.0088 37.1978,32.0268 35.1198,33.1718 C35.1198,33.1718 37.1198,36.6888 40.9188,38.8958 C40.9188,38.8958 37.6498,38.4948 34.3578,34.0178 C34.3578,34.0178 32.3888,37.6198 35.2618,40.1488 C35.2618,40.1488 35.1788,39.5568 35.4298,38.9928 C35.4298,38.9928 36.4998,41.1748 38.0728,41.4298 C38.0728,41.4298 37.8388,40.8848 37.8438,40.5398 C37.8438,40.5398 39.6788,41.8048 42.2288,42.2098 C42.2288,42.2098 41.8248,41.8888 41.7288,41.2658 C41.7288,41.2658 43.6728,41.8558 45.6338,40.1388" id="Fill-5" fill="#DC9FFF"></path>
            <path d="M45.6338,40.1388 C45.6338,40.1388 44.9038,37.9068 43.3708,37.3478 C43.3708,37.3478 43.8008,37.4238 44.2968,37.2008 C44.2968,37.2008 44.2368,36.4438 41.7228,35.0158 C41.7228,35.0158 42.3828,34.9598 42.5338,34.7808 C42.5338,34.7808 41.1798,33.4438 39.7578,33.4078 C39.7578,33.4078 39.8768,33.1098 40.2898,33.0088 C40.2898,33.0088 37.1978,32.0268 35.1198,33.1718 C35.1198,33.1718 37.1198,36.6888 40.9188,38.8958 C40.9188,38.8958 37.6498,38.4948 34.3578,34.0178 C34.3578,34.0178 32.3888,37.6198 35.2618,40.1488 C35.2618,40.1488 35.1788,39.5568 35.4298,38.9928 C35.4298,38.9928 36.4998,41.1748 38.0728,41.4298 C38.0728,41.4298 37.8388,40.8848 37.8438,40.5398 C37.8438,40.5398 39.6788,41.8048 42.2288,42.2098 C42.2288,42.2098 41.8248,41.8888 41.7288,41.2658 C41.7288,41.2658 43.6728,41.8558 45.6338,40.1388 Z" id="Stroke-7" stroke="#9D33DB" stroke-width="0.5" stroke-linejoin="round"></path>
            <path d="M17.5313,35.4235 C17.5313,35.4235 18.9273,33.7545 20.4373,33.8015 C20.4373,33.8015 20.0413,33.7175 19.6923,33.3565 C19.6923,33.3565 20.0043,32.7265 22.6573,32.3615 C22.6573,32.3615 22.1083,32.0865 22.0403,31.8815 C22.0403,31.8815 23.6643,31.1955 24.8983,31.6535 C24.8983,31.6535 24.8993,31.3565 24.5793,31.1275 C24.5793,31.1275 27.5753,31.3455 28.9693,33.0455 C28.9693,33.0455 26.0403,35.3825 22.0143,35.9755 C22.0143,35.9755 24.9653,36.7545 29.3353,34.0345 C29.3353,34.0345 29.7903,37.8095 26.4503,38.9965 C26.4503,38.9965 26.7243,38.5165 26.7023,37.9445 C26.7023,37.9445 25.0313,39.4535 23.5913,39.1325 C23.5913,39.1325 23.9793,38.7435 24.0943,38.4465 C24.0943,38.4465 22.0813,38.9025 19.7493,38.3755 C19.7493,38.3755 20.2063,38.2385 20.5043,37.7355 C20.5043,37.7355 18.6283,37.5745 17.5313,35.4235" id="Fill-9" fill="#DC9FFF"></path>
            <path d="M17.5313,35.4235 C17.5313,35.4235 18.9273,33.7545 20.4373,33.8015 C20.4373,33.8015 20.0413,33.7175 19.6923,33.3565 C19.6923,33.3565 20.0043,32.7265 22.6573,32.3615 C22.6573,32.3615 22.1083,32.0865 22.0403,31.8815 C22.0403,31.8815 23.6643,31.1955 24.8983,31.6535 C24.8983,31.6535 24.8993,31.3565 24.5793,31.1275 C24.5793,31.1275 27.5753,31.3455 28.9693,33.0455 C28.9693,33.0455 26.0403,35.3825 22.0143,35.9755 C22.0143,35.9755 24.9653,36.7545 29.3353,34.0345 C29.3353,34.0345 29.7903,37.8095 26.4503,38.9965 C26.4503,38.9965 26.7243,38.5165 26.7023,37.9445 C26.7023,37.9445 25.0313,39.4535 23.5913,39.1325 C23.5913,39.1325 23.9793,38.7435 24.0943,38.4465 C24.0943,38.4465 22.0813,38.9025 19.7493,38.3755 C19.7493,38.3755 20.2063,38.2385 20.5043,37.7355 C20.5043,37.7355 18.6283,37.5745 17.5313,35.4235 Z" id="Stroke-11" stroke="#9D33DB" stroke-width="0.5" stroke-linejoin="round"></path>
            <path d="M21.7637,40.1388 C21.7637,40.1388 22.4947,37.9068 24.0277,37.3478 C24.0277,37.3478 23.5967,37.4238 23.1017,37.2008 C23.1017,37.2008 23.1607,36.4438 25.6757,35.0158 C25.6757,35.0158 25.0157,34.9598 24.8647,34.7808 C24.8647,34.7808 26.2177,33.4438 27.6397,33.4078 C27.6397,33.4078 27.5207,33.1098 27.1087,33.0088 C27.1087,33.0088 30.1997,32.0268 32.2787,33.1718 C32.2787,33.1718 30.2787,36.6888 26.4797,38.8958 C26.4797,38.8958 29.7487,38.4948 33.0407,34.0178 C33.0407,34.0178 35.0097,37.6198 32.1367,40.1488 C32.1367,40.1488 32.2197,39.5568 31.9677,38.9928 C31.9677,38.9928 30.8977,41.1748 29.3247,41.4298 C29.3247,41.4298 29.5587,40.8848 29.5547,40.5398 C29.5547,40.5398 27.7187,41.8048 25.1687,42.2098 C25.1687,42.2098 25.5737,41.8888 25.6697,41.2658 C25.6697,41.2658 23.7247,41.8558 21.7637,40.1388" id="Fill-13" fill="#DC9FFF"></path>
            <path d="M21.7637,40.1388 C21.7637,40.1388 22.4947,37.9068 24.0277,37.3478 C24.0277,37.3478 23.5967,37.4238 23.1017,37.2008 C23.1017,37.2008 23.1607,36.4438 25.6757,35.0158 C25.6757,35.0158 25.0157,34.9598 24.8647,34.7808 C24.8647,34.7808 26.2177,33.4438 27.6397,33.4078 C27.6397,33.4078 27.5207,33.1098 27.1087,33.0088 C27.1087,33.0088 30.1997,32.0268 32.2787,33.1718 C32.2787,33.1718 30.2787,36.6888 26.4797,38.8958 C26.4797,38.8958 29.7487,38.4948 33.0407,34.0178 C33.0407,34.0178 35.0097,37.6198 32.1367,40.1488 C32.1367,40.1488 32.2197,39.5568 31.9677,38.9928 C31.9677,38.9928 30.8977,41.1748 29.3247,41.4298 C29.3247,41.4298 29.5587,40.8848 29.5547,40.5398 C29.5547,40.5398 27.7187,41.8048 25.1687,42.2098 C25.1687,42.2098 25.5737,41.8888 25.6697,41.2658 C25.6697,41.2658 23.7247,41.8558 21.7637,40.1388 Z" id="Stroke-15" stroke="#9D33DB" stroke-width="0.5" stroke-linejoin="round"></path>
            <path d="M40.999,29.1965 C41.22,28.7845 42.061,28.3625 42.634,28.1085 C42.925,27.9795 43.254,28.1575 43.312,28.4695 C43.424,29.0845 43.536,30.0195 43.318,30.4295 C43.198,30.6535 42.9,30.8765 42.563,31.0755 C42.953,31.0485 43.327,31.0705 43.549,31.1875 C43.96,31.4035 44.386,32.2445 44.636,32.8185 C44.762,33.1095 44.587,33.4405 44.274,33.4955 C43.658,33.6035 42.723,33.7215 42.311,33.5035 C41.899,33.2865 41.476,32.4455 41.224,31.8725 C41.165,31.7395 41.591,31.4725 41.646,31.3545 C41.535,31.2885 41.03,31.3005 41.006,31.1565 C40.895,30.5405 40.779,29.6055 40.999,29.1965" id="Fill-17" fill="#BA37F8"></path>
            <path d="M40.999,29.1965 C41.22,28.7845 42.061,28.3625 42.634,28.1085 C42.925,27.9795 43.254,28.1575 43.312,28.4695 C43.424,29.0845 43.536,30.0195 43.318,30.4295 C43.198,30.6535 42.9,30.8765 42.563,31.0755 C42.953,31.0485 43.327,31.0705 43.549,31.1875 C43.96,31.4035 44.386,32.2445 44.636,32.8185 C44.762,33.1095 44.587,33.4405 44.274,33.4955 C43.658,33.6035 42.723,33.7215 42.311,33.5035 C41.899,33.2865 41.476,32.4455 41.224,31.8725 C41.165,31.7395 41.591,31.4725 41.646,31.3545 C41.535,31.2885 41.03,31.3005 41.006,31.1565 C40.895,30.5405 40.779,29.6055 40.999,29.1965 Z" id="Stroke-19" stroke="#9D33DB" stroke-width="0.5"></path>
            <path d="M26.3994,29.1965 C26.1784,28.7845 25.3364,28.3625 24.7634,28.1085 C24.4734,27.9795 24.1434,28.1575 24.0864,28.4695 C23.9744,29.0845 23.8614,30.0195 24.0804,30.4295 C24.1994,30.6535 24.4974,30.8765 24.8354,31.0755 C24.4454,31.0485 24.0714,31.0705 23.8494,31.1875 C23.4384,31.4035 23.0124,32.2445 22.7624,32.8185 C22.6354,33.1095 22.8104,33.4405 23.1244,33.4955 C23.7404,33.6035 24.6744,33.7215 25.0874,33.5035 C25.4984,33.2865 25.9224,32.4455 26.1744,31.8725 C26.2334,31.7395 25.8074,31.4725 25.7524,31.3545 C25.8634,31.2885 26.3674,31.3005 26.3924,31.1565 C26.5034,30.5405 26.6194,29.6055 26.3994,29.1965" id="Fill-57" fill="#BA37F8"></path>
            <path d="M26.3994,29.1965 C26.1784,28.7845 25.3364,28.3625 24.7634,28.1085 C24.4734,27.9795 24.1434,28.1575 24.0864,28.4695 C23.9744,29.0845 23.8614,30.0195 24.0804,30.4295 C24.1994,30.6535 24.4974,30.8765 24.8354,31.0755 C24.4454,31.0485 24.0714,31.0705 23.8494,31.1875 C23.4384,31.4035 23.0124,32.2445 22.7624,32.8185 C22.6354,33.1095 22.8104,33.4405 23.1244,33.4955 C23.7404,33.6035 24.6744,33.7215 25.0874,33.5035 C25.4984,33.2865 25.9224,32.4455 26.1744,31.8725 C26.2334,31.7395 25.8074,31.4725 25.7524,31.3545 C25.8634,31.2885 26.3674,31.3005 26.3924,31.1565 C26.5034,30.5405 26.6194,29.6055 26.3994,29.1965 Z" id="Stroke-59" stroke="#9D33DB" stroke-width="0.5"></path>
            <polygon id="Fill-99" fill="#FFE680" points="39.6504 32.3757 38.4034 33.6367 38.8534 35.3517 37.1414 35.8187 36.6754 37.5297 34.9604 37.0797 33.6994 38.3267 32.4384 37.0797 30.7224 37.5297 30.2554 35.8187 28.5454 35.3517 28.9954 33.6367 27.7484 32.3757 28.9954 31.1147 28.5454 29.3987 30.2554 28.9327 30.7224 27.2217 32.4384 27.6707 33.6994 26.4247 34.9604 27.6707 36.6754 27.2217 37.1414 28.9327 38.8534 29.3987 38.4034 31.1147"></polygon>
            <polygon id="Stroke-101" stroke="#FFD633" stroke-width="0.5" points="39.6504 32.3757 38.4034 33.6367 38.8534 35.3517 37.1414 35.8187 36.6754 37.5297 34.9604 37.0797 33.6994 38.3267 32.4384 37.0797 30.7224 37.5297 30.2554 35.8187 28.5454 35.3517 28.9954 33.6367 27.7484 32.3757 28.9954 31.1147 28.5454 29.3987 30.2554 28.9327 30.7224 27.2217 32.4384 27.6707 33.6994 26.4247 34.9604 27.6707 36.6754 27.2217 37.1414 28.9327 38.8534 29.3987 38.4034 31.1147"></polygon>
            <polygon id="Fill-103" fill="#FFD633" points="36.4756 32.3757 35.8946 32.9637 36.1036 33.7647 35.3056 33.9817 35.0876 34.7807 34.2876 34.5707 33.6996 35.1527 33.1106 34.5707 32.3096 34.7807 32.0926 33.9817 31.2936 33.7647 31.5036 32.9637 30.9216 32.3757 31.5036 31.7867 31.2936 30.9867 32.0926 30.7687 32.3106 29.9707 33.1106 30.1807 33.6996 29.5987 34.2876 30.1807 35.0876 29.9707 35.3056 30.7697 36.1046 30.9867 35.8946 31.7877"></polygon>
        </g>
    </g>
</svg>

<?xml version="1.0" encoding="UTF-8" standalone="no"?>
<svg
   xmlns:dc="http://purl.org/dc/elements/1.1/"
   xmlns:cc="http://creativecommons.org/ns#"
   xmlns:rdf="http://www.w3.org/1999/02/22-rdf-syntax-ns#"
   xmlns:svg="http://www.w3.org/2000/svg"
   xmlns="http://www.w3.org/2000/svg"
   xmlns:sodipodi="http://sodipodi.sourceforge.net/DTD/sodipodi-0.dtd"
   xmlns:inkscape="http://www.inkscape.org/namespaces/inkscape"
   width="68"
   height="68"
   viewBox="0 0 68 68"
   version="1.1"
   id="svg23"
   sodipodi:docname="1.svg"
   inkscape:version="0.92.4 5da689c313, 2019-01-14">
  <metadata
     id="metadata29">
    <rdf:RDF>
      <cc:Work
         rdf:about="">
        <dc:format>image/svg+xml</dc:format>
        <dc:type
           rdf:resource="http://purl.org/dc/dcmitype/StillImage" />
        <dc:title>Artboard</dc:title>
      </cc:Work>
    </rdf:RDF>
  </metadata>
  <defs
     id="defs27" />
  <sodipodi:namedview
     pagecolor="#ffffff"
     bordercolor="#666666"
     borderopacity="1"
     objecttolerance="10"
     gridtolerance="10"
     guidetolerance="10"
     inkscape:pageopacity="0"
     inkscape:pageshadow="2"
     inkscape:window-width="793"
     inkscape:window-height="480"
     id="namedview25"
     showgrid="false"
     inkscape:zoom="6.0811121"
     inkscape:cx="15.088985"
     inkscape:cy="21.5"
     inkscape:window-x="0"
     inkscape:window-y="0"
     inkscape:window-maximized="0"
     inkscape:current-layer="svg23" />
  <!-- Generator: Sketch 52.6 (67491) - http://www.bohemiancoding.com/sketch -->
  <title
     id="title2">Artboard</title>
  <desc
     id="desc4">Created with Sketch.</desc>
  <g
     id="Artboard"
     style="fill:none;fill-rule:evenodd;stroke:none;stroke-width:1"
     transform="translate(0.30125,25.540215)">
    <g
       id="Page-1-Copy-2">
      <path
         d="m 49.8662,35.4235 c 0,0 -1.396,-1.669 -2.905,-1.622 0,0 0.395,-0.084 0.745,-0.445 0,0 -0.312,-0.63 -2.965,-0.995 0,0 0.549,-0.275 0.617,-0.48 0,0 -1.624,-0.686 -2.859,-0.228 0,0 0,-0.297 0.32,-0.526 0,0 -2.996,0.218 -4.391,1.918 0,0 2.929,2.337 6.956,2.93 0,0 -2.951,0.779 -7.321,-1.941 0,0 -0.455,3.775 2.885,4.962 0,0 -0.275,-0.48 -0.252,-1.052 0,0 1.67,1.509 3.111,1.188 0,0 -0.389,-0.389 -0.503,-0.686 0,0 2.012,0.456 4.345,-0.071 0,0 -0.458,-0.137 -0.755,-0.64 0,0 1.875,-0.161 2.972,-2.312"
         id="Fill-1"
         inkscape:connector-curvature="0"
         style="fill:#dc9fff" />
      <path
         d="m 49.8662,35.4235 c 0,0 -1.396,-1.669 -2.905,-1.622 0,0 0.395,-0.084 0.745,-0.445 0,0 -0.312,-0.63 -2.965,-0.995 0,0 0.549,-0.275 0.617,-0.48 0,0 -1.624,-0.686 -2.859,-0.228 0,0 0,-0.297 0.32,-0.526 0,0 -2.996,0.218 -4.391,1.918 0,0 2.929,2.337 6.956,2.93 0,0 -2.951,0.779 -7.321,-1.941 0,0 -0.455,3.775 2.885,4.962 0,0 -0.275,-0.48 -0.252,-1.052 0,0 1.67,1.509 3.111,1.188 0,0 -0.389,-0.389 -0.503,-0.686 0,0 2.012,0.456 4.345,-0.071 0,0 -0.458,-0.137 -0.755,-0.64 0,0 1.875,-0.161 2.972,-2.312 z"
         id="Stroke-3"
         inkscape:connector-curvature="0"
         style="stroke:#9d33db;stroke-width:0.5;stroke-linejoin:round" />
      <path
         d="m 45.6338,40.1388 c 0,0 -0.73,-2.232 -2.263,-2.791 0,0 0.43,0.076 0.926,-0.147 0,0 -0.06,-0.757 -2.574,-2.185 0,0 0.66,-0.056 0.811,-0.235 0,0 -1.354,-1.337 -2.776,-1.373 0,0 0.119,-0.298 0.532,-0.399 0,0 -3.092,-0.982 -5.17,0.163 0,0 2,3.517 5.799,5.724 0,0 -3.269,-0.401 -6.561,-4.878 0,0 -1.969,3.602 0.904,6.131 0,0 -0.083,-0.592 0.168,-1.156 0,0 1.07,2.182 2.643,2.437 0,0 -0.234,-0.545 -0.229,-0.89 0,0 1.835,1.265 4.385,1.67 0,0 -0.404,-0.321 -0.5,-0.944 0,0 1.944,0.59 3.905,-1.127"
         id="Fill-5"
         inkscape:connector-curvature="0"
         style="fill:#dc9fff" />
      <path
         d="m 45.6338,40.1388 c 0,0 -0.73,-2.232 -2.263,-2.791 0,0 0.43,0.076 0.926,-0.147 0,0 -0.06,-0.757 -2.574,-2.185 0,0 0.66,-0.056 0.811,-0.235 0,0 -1.354,-1.337 -2.776,-1.373 0,0 0.119,-0.298 0.532,-0.399 0,0 -3.092,-0.982 -5.17,0.163 0,0 2,3.517 5.799,5.724 0,0 -3.269,-0.401 -6.561,-4.878 0,0 -1.969,3.602 0.904,6.131 0,0 -0.083,-0.592 0.168,-1.156 0,0 1.07,2.182 2.643,2.437 0,0 -0.234,-0.545 -0.229,-0.89 0,0 1.835,1.265 4.385,1.67 0,0 -0.404,-0.321 -0.5,-0.944 0,0 1.944,0.59 3.905,-1.127 z"
         id="Stroke-7"
         inkscape:connector-curvature="0"
         style="stroke:#9d33db;stroke-width:0.5;stroke-linejoin:round" />
      <path
         d="m 17.5313,35.4235 c 0,0 1.396,-1.669 2.906,-1.622 0,0 -0.396,-0.084 -0.745,-0.445 0,0 0.312,-0.63 2.965,-0.995 0,0 -0.549,-0.275 -0.617,-0.48 0,0 1.624,-0.686 2.858,-0.228 0,0 0.001,-0.297 -0.319,-0.526 0,0 2.996,0.218 4.39,1.918 0,0 -2.929,2.337 -6.955,2.93 0,0 2.951,0.779 7.321,-1.941 0,0 0.455,3.775 -2.885,4.962 0,0 0.274,-0.48 0.252,-1.052 0,0 -1.671,1.509 -3.111,1.188 0,0 0.388,-0.389 0.503,-0.686 0,0 -2.013,0.456 -4.345,-0.071 0,0 0.457,-0.137 0.755,-0.64 0,0 -1.876,-0.161 -2.973,-2.312"
         id="Fill-9"
         inkscape:connector-curvature="0"
         style="fill:#dc9fff" />
      <path
         d="m 17.5313,35.4235 c 0,0 1.396,-1.669 2.906,-1.622 0,0 -0.396,-0.084 -0.745,-0.445 0,0 0.312,-0.63 2.965,-0.995 0,0 -0.549,-0.275 -0.617,-0.48 0,0 1.624,-0.686 2.858,-0.228 0,0 0.001,-0.297 -0.319,-0.526 0,0 2.996,0.218 4.39,1.918 0,0 -2.929,2.337 -6.955,2.93 0,0 2.951,0.779 7.321,-1.941 0,0 0.455,3.775 -2.885,4.962 0,0 0.274,-0.48 0.252,-1.052 0,0 -1.671,1.509 -3.111,1.188 0,0 0.388,-0.389 0.503,-0.686 0,0 -2.013,0.456 -4.345,-0.071 0,0 0.457,-0.137 0.755,-0.64 0,0 -1.876,-0.161 -2.973,-2.312 z"
         id="Stroke-11"
         inkscape:connector-curvature="0"
         style="stroke:#9d33db;stroke-width:0.5;stroke-linejoin:round" />
      <path
         d="m 21.7637,40.1388 c 0,0 0.731,-2.232 2.264,-2.791 0,0 -0.431,0.076 -0.926,-0.147 0,0 0.059,-0.757 2.574,-2.185 0,0 -0.66,-0.056 -0.811,-0.235 0,0 1.353,-1.337 2.775,-1.373 0,0 -0.119,-0.298 -0.531,-0.399 0,0 3.091,-0.982 5.17,0.163 0,0 -2,3.517 -5.799,5.724 0,0 3.269,-0.401 6.561,-4.878 0,0 1.969,3.602 -0.904,6.131 0,0 0.083,-0.592 -0.169,-1.156 0,0 -1.07,2.182 -2.643,2.437 0,0 0.234,-0.545 0.23,-0.89 0,0 -1.836,1.265 -4.386,1.67 0,0 0.405,-0.321 0.501,-0.944 0,0 -1.945,0.59 -3.906,-1.127"
         id="Fill-13"
         inkscape:connector-curvature="0"
         style="fill:#dc9fff" />
      <path
         d="m 21.7637,40.1388 c 0,0 0.731,-2.232 2.264,-2.791 0,0 -0.431,0.076 -0.926,-0.147 0,0 0.059,-0.757 2.574,-2.185 0,0 -0.66,-0.056 -0.811,-0.235 0,0 1.353,-1.337 2.775,-1.373 0,0 -0.119,-0.298 -0.531,-0.399 0,0 3.091,-0.982 5.17,0.163 0,0 -2,3.517 -5.799,5.724 0,0 3.269,-0.401 6.561,-4.878 0,0 1.969,3.602 -0.904,6.131 0,0 0.083,-0.592 -0.169,-1.156 0,0 -1.07,2.182 -2.643,2.437 0,0 0.234,-0.545 0.23,-0.89 0,0 -1.836,1.265 -4.386,1.67 0,0 0.405,-0.321 0.501,-0.944 0,0 -1.945,0.59 -3.906,-1.127 z"
         id="Stroke-15"
         inkscape:connector-curvature="0"
         style="stroke:#9d33db;stroke-width:0.5;stroke-linejoin:round" />
      <path
         d="m 40.999,29.1965 c 0.221,-0.412 1.062,-0.834 1.635,-1.088 0.291,-0.129 0.62,0.049 0.678,0.361 0.112,0.615 0.224,1.55 0.006,1.96 -0.12,0.224 -0.418,0.447 -0.755,0.646 0.39,-0.027 0.764,-0.005 0.986,0.112 0.411,0.216 0.837,1.057 1.087,1.631 0.126,0.291 -0.049,0.622 -0.362,0.677 -0.616,0.108 -1.551,0.226 -1.963,0.008 -0.412,-0.217 -0.835,-1.058 -1.087,-1.631 -0.059,-0.133 0.367,-0.4 0.422,-0.518 -0.111,-0.066 -0.616,-0.054 -0.64,-0.198 -0.111,-0.616 -0.227,-1.551 -0.007,-1.96"
         id="Fill-17"
         inkscape:connector-curvature="0"
         style="fill:#ba37f8" />
      <path
         d="m 40.999,29.1965 c 0.221,-0.412 1.062,-0.834 1.635,-1.088 0.291,-0.129 0.62,0.049 0.678,0.361 0.112,0.615 0.224,1.55 0.006,1.96 -0.12,0.224 -0.418,0.447 -0.755,0.646 0.39,-0.027 0.764,-0.005 0.986,0.112 0.411,0.216 0.837,1.057 1.087,1.631 0.126,0.291 -0.049,0.622 -0.362,0.677 -0.616,0.108 -1.551,0.226 -1.963,0.008 -0.412,-0.217 -0.835,-1.058 -1.087,-1.631 -0.059,-0.133 0.367,-0.4 0.422,-0.518 -0.111,-0.066 -0.616,-0.054 -0.64,-0.198 -0.111,-0.616 -0.227,-1.551 -0.007,-1.96 z"
         id="Stroke-19"
         inkscape:connector-curvature="0"
         style="stroke:#9d33db;stroke-width:0.5" />
      <path
         d="m 26.3994,29.1965 c -0.221,-0.412 -1.063,-0.834 -1.636,-1.088 -0.29,-0.129 -0.62,0.049 -0.677,0.361 -0.112,0.615 -0.225,1.55 -0.006,1.96 0.119,0.224 0.417,0.447 0.755,0.646 -0.39,-0.027 -0.764,-0.005 -0.986,0.112 -0.411,0.216 -0.837,1.057 -1.087,1.631 -0.127,0.291 0.048,0.622 0.362,0.677 0.616,0.108 1.55,0.226 1.963,0.008 0.411,-0.217 0.835,-1.058 1.087,-1.631 0.059,-0.133 -0.367,-0.4 -0.422,-0.518 0.111,-0.066 0.615,-0.054 0.64,-0.198 0.111,-0.616 0.227,-1.551 0.007,-1.96"
         id="Fill-57"
         inkscape:connector-curvature="0"
         style="fill:#ba37f8" />
      <path
         d="m 26.3994,29.1965 c -0.221,-0.412 -1.063,-0.834 -1.636,-1.088 -0.29,-0.129 -0.62,0.049 -0.677,0.361 -0.112,0.615 -0.225,1.55 -0.006,1.96 0.119,0.224 0.417,0.447 0.755,0.646 -0.39,-0.027 -0.764,-0.005 -0.986,0.112 -0.411,0.216 -0.837,1.057 -1.087,1.631 -0.127,0.291 0.048,0.622 0.362,0.677 0.616,0.108 1.55,0.226 1.963,0.008 0.411,-0.217 0.835,-1.058 1.087,-1.631 0.059,-0.133 -0.367,-0.4 -0.422,-0.518 0.111,-0.066 0.615,-0.054 0.64,-0.198 0.111,-0.616 0.227,-1.551 0.007,-1.96 z"
         id="Stroke-59"
         inkscape:connector-curvature="0"
         style="stroke:#9d33db;stroke-width:0.5" />
      <polygon
         id="Fill-99"
         points="36.6754,37.5297 34.9604,37.0797 33.6994,38.3267 32.4384,37.0797 30.7224,37.5297 30.2554,35.8187 28.5454,35.3517 28.9954,33.6367 27.7484,32.3757 28.9954,31.1147 28.5454,29.3987 30.2554,28.9327 30.7224,27.2217 32.4384,27.6707 33.6994,26.4247 34.9604,27.6707 36.6754,27.2217 37.1414,28.9327 38.8534,29.3987 38.4034,31.1147 39.6504,32.3757 38.4034,33.6367 38.8534,35.3517 37.1414,35.8187 "
         style="fill:#ffe680" />
      <polygon
         id="Stroke-101"
         points="36.6754,37.5297 34.9604,37.0797 33.6994,38.3267 32.4384,37.0797 30.7224,37.5297 30.2554,35.8187 28.5454,35.3517 28.9954,33.6367 27.7484,32.3757 28.9954,31.1147 28.5454,29.3987 30.2554,28.9327 30.7224,27.2217 32.4384,27.6707 33.6994,26.4247 34.9604,27.6707 36.6754,27.2217 37.1414,28.9327 38.8534,29.3987 38.4034,31.1147 39.6504,32.3757 38.4034,33.6367 38.8534,35.3517 37.1414,35.8187 "
         style="stroke:#ffd633;stroke-width:0.5" />
      <polygon
         id="Fill-103"
         points="35.0876,34.7807 34.2876,34.5707 33.6996,35.1527 33.1106,34.5707 32.3096,34.7807 32.0926,33.9817 31.2936,33.7647 31.5036,32.9637 30.9216,32.3757 31.5036,31.7867 31.2936,30.9867 32.0926,30.7687 32.3106,29.9707 33.1106,30.1807 33.6996,29.5987 34.2876,30.1807 35.0876,29.9707 35.3056,30.7697 36.1046,30.9867 35.8946,31.7877 36.4756,32.3757 35.8946,32.9637 36.1036,33.7647 35.3056,33.9817 "
         style="fill:#ffd633" />
    </g>
  </g>
</svg>
